spark-frontend/src/assets/icons/logo.svg

<svg width="83" height="24" viewBox="0 0 83 24" fill="none" xmlns="http://www.w3.org/2000/svg">
    <path d="M3.92134 4.14893C3.74097 3.94553 3.75022 3.63685 3.94245 3.44462C4.13468 3.25239 4.44337 3.24314 4.64676 3.42351L13.3534 11.1445L21.0743 19.8511C21.2547 20.0545 21.2454 20.3631 21.0532 20.5554C20.861 20.7476 20.5523 20.7569 20.3489 20.5765L11.6423 12.8555L3.92134 4.14893Z" fill="#6642EE"/>
    <path d="M15.1136 0.647022C15.1996 0.38912 15.4715 0.242788 15.7341 0.313149C15.9967 0.383509 16.1591 0.646214 16.1046 0.912545L13.7713 12.3132L10.0917 23.353C10.0057 23.6109 9.73373 23.7572 9.47115 23.6869C9.20856 23.6165 9.0462 23.3538 9.10071 23.0875L11.4339 11.6869L15.1136 0.647022Z" fill="#D37C40"/>
    <path d="M23.6703 8.49809C23.9366 8.44359 24.1993 8.60594 24.2697 8.86853C24.3401 9.13112 24.1937 9.40308 23.9358 9.48904L12.896 13.1687L1.49536 15.5019C1.22903 15.5564 0.966325 15.3941 0.895964 15.1315C0.825604 14.8689 0.971935 14.597 1.22984 14.511L12.2697 10.8313L23.6703 8.49809Z" fill="#37AC81"/>
    <path d="M33.0006 13.1479H34.9407C34.9746 13.3767 35.0931 13.5819 35.2963 13.7633C35.4994 13.9369 35.7703 14.071 36.1089 14.1657C36.4475 14.2604 36.8335 14.3077 37.2669 14.3077C37.6799 14.3077 38.0118 14.2761 38.2623 14.213C38.5129 14.142 38.6957 14.0434 38.8108 13.9172C38.9259 13.783 38.9835 13.6174 38.9835 13.4201C38.9835 13.2387 38.9022 13.0966 38.7397 12.9941C38.5772 12.8915 38.3097 12.8126 37.9373 12.7574C37.5648 12.6943 37.0535 12.6391 36.4035 12.5917C35.9091 12.5523 35.4622 12.4852 35.0626 12.3905C34.6699 12.288 34.3347 12.1499 34.057 11.9763C33.7794 11.8028 33.5661 11.5897 33.4171 11.3373C33.2749 11.0769 33.2038 10.7692 33.2038 10.4142C33.2038 9.90138 33.3392 9.46746 33.6101 9.11243C33.881 8.74951 34.2873 8.47337 34.829 8.28402C35.3708 8.09467 36.0445 8 36.8504 8C38.0422 8 38.9564 8.24458 39.593 8.73373C40.2295 9.22288 40.541 9.91321 40.5275 10.8047H38.6889C38.6551 10.4181 38.4688 10.1381 38.1303 9.9645C37.7917 9.78304 37.3413 9.69231 36.7793 9.69231C36.2375 9.69231 35.8143 9.75542 35.5096 9.88166C35.2048 10.0079 35.0525 10.2249 35.0525 10.5325C35.0525 10.6667 35.0897 10.7811 35.1642 10.8757C35.2455 10.9704 35.3809 11.0493 35.5705 11.1124C35.7601 11.1755 36.0242 11.2308 36.3628 11.2781C36.7014 11.3254 37.1246 11.3728 37.6325 11.4201C38.154 11.4596 38.6111 11.5266 39.0038 11.6213C39.3966 11.716 39.7216 11.8501 39.979 12.0237C40.2431 12.1893 40.4394 12.4024 40.5681 12.6627C40.7035 12.9152 40.7712 13.2268 40.7712 13.5976C40.7712 14.1183 40.6426 14.5562 40.3853 14.9112C40.1347 15.2663 39.7386 15.5385 39.1968 15.7278C38.6551 15.9093 37.9542 16 37.0942 16C36.5389 16 36.0412 15.9448 35.601 15.8343C35.1676 15.7318 34.785 15.5858 34.4532 15.3964C34.1214 15.2071 33.8471 14.9901 33.6304 14.7456C33.4137 14.4931 33.2512 14.2327 33.1428 13.9645C33.0413 13.6884 32.9939 13.4162 33.0006 13.1479Z" fill="#FFFFFD"/>
    <path d="M44.5892 13.5385V11.9527H48.4186C48.7166 11.9527 48.957 11.8738 49.1398 11.716C49.3227 11.5503 49.4141 11.2978 49.4141 10.9586C49.4141 10.6036 49.3227 10.3471 49.1398 10.1893C48.957 10.0237 48.7166 9.94083 48.4186 9.94083H44.7517V15.8107H42.9233V8.18935H48.185C48.6116 8.18935 49.0078 8.23669 49.3734 8.33136C49.7459 8.42604 50.0709 8.57988 50.3486 8.7929C50.6262 9.00592 50.8429 9.28994 50.9987 9.64497C51.1544 9.99211 51.2323 10.43 51.2323 10.9586C51.2323 11.4714 51.1544 11.8974 50.9987 12.2367C50.8429 12.568 50.6262 12.8323 50.3486 13.0296C50.0709 13.2189 49.7459 13.3531 49.3734 13.432C49.0078 13.503 48.6116 13.5385 48.185 13.5385H44.5892Z" fill="#FFFFFD"/>
    <path d="M53.8495 14.355V12.8521H59.2432V14.355H53.8495ZM51.9602 15.8107L55.556 8.18935H57.5672L61.1935 15.8107H59.1924L56.0639 8.95858H57.0593L53.9612 15.8107H51.9602Z" fill="#FFFFFD"/>
    <path d="M63.0983 15.8107V8.18935H68.9186C69.4671 8.18935 69.9513 8.27219 70.3712 8.43787C70.7978 8.59566 71.1296 8.85207 71.3666 9.2071C71.6104 9.56213 71.7323 10.0316 71.7323 10.6154C71.7323 11.0099 71.6713 11.3412 71.5495 11.6095C71.4343 11.8698 71.2718 12.0789 71.0619 12.2367C70.852 12.3945 70.6082 12.5128 70.3305 12.5917C70.0597 12.6706 69.7719 12.7219 69.4671 12.7456L69.0913 12.6154C69.694 12.6233 70.1748 12.6667 70.5337 12.7456C70.8926 12.8245 71.1499 12.9665 71.3057 13.1716C71.4682 13.3767 71.5495 13.6765 71.5495 14.071V15.8107H69.7312V14.2722C69.7312 14.0039 69.6872 13.7988 69.5992 13.6568C69.5179 13.5069 69.3554 13.4043 69.1116 13.3491C68.8746 13.2939 68.5191 13.2663 68.0451 13.2663H64.9267V15.8107H63.0983ZM64.9267 11.7278H68.9186C69.2234 11.7278 69.4637 11.6489 69.6398 11.4911C69.8159 11.3333 69.9039 11.1006 69.9039 10.7929C69.9039 10.501 69.8159 10.288 69.6398 10.1538C69.4637 10.0118 69.2234 9.94083 68.9186 9.94083H64.9267V11.7278Z" fill="#FFFFFD"/>
    <path d="M78.0126 12.0828L78.0024 11.4201L83 15.8107H80.3184L75.9709 11.787L79.9019 8.18935H82.5023L78.0126 12.0828ZM74.1527 8.18935H75.9811V15.8107H74.1527V8.18935Z" fill="#FFFFFD"/>
</svg>

<svg xmlns="http://www.w3.org/2000/svg" width="83" height="24" fill="none"><path fill="#6642EE" d="M3.921 4.149a.514.514 0 0 1 .726-.725l8.706 7.72 7.721 8.707a.514.514 0 0 1-.725.726l-8.707-7.722z"/><path fill="#D37C40" d="M15.114.647a.514.514 0 0 1 .99.266l-2.333 11.4-3.68 11.04a.514.514 0 0 1-.99-.266l2.333-11.4z"/><path fill="#37AC81" d="M23.67 8.498a.514.514 0 0 1 .266.991l-11.04 3.68-11.4 2.333a.514.514 0 0 1-.266-.991l11.04-3.68z"/><path fill="#FFFFFD" d="M33 13.148h1.94q.052.343.356.615.305.26.813.403.507.142 1.158.142.62 0 .995-.095.376-.107.549-.296a.74.74 0 0 0 .172-.497.48.48 0 0 0-.243-.426q-.244-.153-.803-.237a17 17 0 0 0-1.533-.165 9 9 0 0 1-1.341-.202 3.6 3.6 0 0 1-1.006-.414 1.9 1.9 0 0 1-.64-.639 1.9 1.9 0 0 1-.213-.923q0-.77.406-1.302.406-.544 1.219-.828T36.85 8q1.788 0 2.743.734t.934 2.07H38.69a.98.98 0 0 0-.559-.84q-.508-.272-1.35-.272-.814 0-1.27.19t-.457.65q0 .203.111.344.122.141.407.236.284.095.792.166t1.27.142q.782.06 1.37.201.59.143.976.403.396.248.59.639.201.378.202.935 0 .78-.386 1.313-.375.533-1.188.817-.813.272-2.103.272a6.2 6.2 0 0 1-1.493-.166 4.3 4.3 0 0 1-1.148-.438 3.2 3.2 0 0 1-.823-.65 2.8 2.8 0 0 1-.487-.782 2.2 2.2 0 0 1-.142-.816m11.588.391v-1.586h3.829q.447 0 .72-.237.275-.249.275-.757 0-.533-.274-.77-.274-.248-.721-.248h-3.667v5.87h-1.829V8.189h5.262q.64 0 1.188.142.56.143.976.462t.65.852q.233.52.233 1.314 0 .768-.233 1.278a2 2 0 0 1-.65.793q-.417.283-.976.402a6 6 0 0 1-1.188.107zm9.26.816v-1.503h5.393v1.503zm-1.89 1.456 3.596-7.622h2.011l3.627 7.622h-2.002l-3.128-6.852h.995l-3.098 6.852zm11.138-.001V8.19h5.82q.824 0 1.453.248.64.236.996.77.365.532.365 1.407 0 .592-.183.995-.172.39-.487.627t-.731.355a4.3 4.3 0 0 1-.864.154l-.376-.13q.904.01 1.443.13.538.118.772.426.243.308.243.899v1.74h-1.818v-1.539q0-.402-.132-.615-.122-.225-.487-.308-.356-.083-1.067-.083h-3.118v2.545zm1.829-4.082h3.992q.457 0 .72-.237.265-.237.265-.698 0-.438-.264-.64-.264-.212-.721-.212h-3.992zm13.086.355-.01-.663L83 15.81h-2.682l-4.347-4.023 3.93-3.598h2.601zm-3.86-3.894h1.828v7.622h-1.828z"/></svg>
